X:10
T:C. E. Larrabee's Lark
S:American Veteran Fifer, #10
C:By A.F. Hopkins Co. A. 134th O. Vol
M:2/4
L:1/16
Q:1/8=180
K:G 
%%MIDI program 72
%%MIDI transpose 8
%%MIDI ratio 3 1
|: Bc | dg2a gedB | AGAB d2e2 | d2>e2 dBAG | A6 dd |
dg2a gedB | AGAB d2e2 | d2B2 AGAB | G6 :|
|: Bc | dg2a gfga | ea2b a2ba | gfga gafa | gafg efde |
Bdga gfga | ea2b a2ba | gfga gedB | A2A2G2 :|



